client/filepreviewer/pdfjs/web/images/toolbarButton-viewOutline.svg

<svg width="16" height="16" viewBox="0 0 16 16" fill="none" xmlns="http://www.w3.org/2000/svg">
<path d="M3 1.25H15V2.75H3V1.25ZM15 5.25H3V6.75H15V5.25ZM15 13.25H3V14.75H15V13.25ZM15 9.25H6V10.75H15V9.25ZM0 5.25H1.5V6.75H0V5.25ZM1.5 13.25H0V14.75H1.5V13.25ZM0 1.25H1.5V2.75H0V1.25ZM4.5 9.25H3V10.75H4.5V9.25Z" fill="black"/>
</svg>

<svg xmlns="http://www.w3.org/2000/svg" width="16" height="16" fill="none" viewBox="0 0 16 16"><path fill="#000" d="M3 1.25h12v1.5H3zm12 4H3v1.5h12zm0 8H3v1.5h12zm0-4H6v1.5h9zm-15-4h1.5v1.5H0zm1.5 8H0v1.5h1.5zM0 1.25h1.5v1.5H0zm4.5 8H3v1.5h1.5z"/></svg>
